HTML/img/Component/Rhythms.svg

<svg viewBox="0.0 0.0 348.0 348.0" xmlns="http://www.w3.org/2000/svg">
    <defs>
        <style id="bx-google-fonts">
            @import url(https://fonts.googleapis.com/css?family=Source+Serif+Pro:400,600,700);
        </style>
        <pattern id="pattern-0" width="20" height="20" patternUnits="userSpaceOnUse" viewBox="0 0 100 100">
            <path d="M0 0h50v100H0z"/>
        </pattern>
    </defs>
    <path fill-opacity="0" d="M0 0h348v348H0z"/>
    <path fill="#fff" d="M-6 0h348v347.969H-6z"/>
    <path fill-opacity="0" d="M5.079 5.776h336.913v337.669H5.079z" stroke="#000" stroke-linejoin="round"/>
    <path stroke="#000" stroke-width="2" stroke-linejoin="round" d="M5.079 5.776h336.913v337.669H5.079z" fill="#fff"/>
    <path fill="#fff" d="M282.734 40.554c0-8.376 6.966-15.165 15.559-15.165 4.127 0 8.085 1.597 11.002 4.441 2.918 2.844 4.558 6.702 4.558 10.724 0 8.376-6.966 15.165-15.56 15.165-8.593 0-15.559-6.789-15.559-15.165z"/>
    <path stroke="#000" stroke-width="2" stroke-linejoin="round" d="M282.734 40.554c0-8.376 6.966-15.165 15.559-15.165 4.127 0 8.085 1.597 11.002 4.441 2.918 2.844 4.558 6.702 4.558 10.724 0 8.376-6.966 15.165-15.56 15.165-8.593 0-15.559-6.789-15.559-15.165z" fill="#fff"/>
    <path fill-opacity="0" d="M38.37 95.737h107.213v100.189H38.37z"/>
    <path stroke="#000" stroke-linejoin="round" d="M38.37 95.737h107.213v100.189H38.37z" fill="#fff"/>
    <path fill-opacity="0" d="M152.48 95.737h107.213v100.189H152.48z"/>
    <path stroke="#000" stroke-linejoin="round" d="M152.48 95.737h107.213v100.189H152.48z" fill="#fff"/>
    <path fill-opacity="0" d="M38.37 206.521h107.213V306.71H38.37z"/>
    <path stroke="#000" stroke-linejoin="round" d="M38.37 206.521h107.213V306.71H38.37z" fill="#fff"/>
    <path fill-opacity="0" d="M152.48 206.521h107.213V306.71H152.48z"/>
    <path stroke="#000" stroke-linejoin="round" d="M152.48 206.521h107.213V306.71H152.48z" fill="#fff"/>
    <path stroke="#000" stroke-width="2" stroke-linejoin="round" d="M46.273 42.05c0-13.893 11.554-25.153 25.806-25.153 6.845 0 13.41 2.649 18.248 7.366 4.84 4.717 7.56 11.116 7.56 17.787 0 13.892-11.554 25.152-25.808 25.152-14.252 0-25.806-11.26-25.806-25.152z" fill="#fff"/>
    <text x="76.43" y="170.735" font-family="Source Serif Pro" font-size="72" stroke="#000" stroke-linejoin="round" white-space="pre">
        ♩
    </text>
    <text x="186.021" y="172.086" font-family="Source Serif Pro" font-size="72" stroke="#000" stroke-linejoin="round" white-space="pre">
        ♪
    </text>
    <text x="61.715" y="281.181" font-family="Source Serif Pro" font-size="72" stroke="#000" stroke-linejoin="round" white-space="pre">
        ♫
    </text>
    <text x="172.757" y="283.483" font-family="Source Serif Pro" font-size="72" stroke="#000" stroke-linejoin="round" white-space="pre">
        ♬
    </text>
</svg>

<?xml version="1.0" encoding="utf-8"?>
<svg viewBox="0.0 0.0 348.0 348.0" xmlns="http://www.w3.org/2000/svg">
  <defs>
    <style id="bx-google-fonts">@import url(https://fonts.googleapis.com/css?family=Source+Serif+Pro:400,600,700);</style>
    <pattern id="pattern-0" x="0" y="0" width="20" height="20" patternUnits="userSpaceOnUse" viewBox="0 0 100 100">
      <path d="M 0 0 L 50 0 L 50 100 L 0 100 Z" style="fill: black;"/>
    </pattern>
  </defs>
  <path fill="#000000" fill-opacity="0.0" d="M 0 0 L 348 0 L 348 348 L 0 348 Z" fill-rule="nonzero"/>
  <path fill="#ffffff" d="M -6 0 L 342 0 L 342 347.969 L -6 347.969 Z" fill-rule="nonzero"/>
  <path fill-opacity="0.0" d="M 5.079 5.776 L 341.992 5.776 L 341.992 343.445 L 5.079 343.445 Z" style="stroke: rgb(0, 0, 0); stroke-linejoin: round; fill: rgb(0, 0, 0);"/>
  <path stroke="#000000" stroke-width="2.0" stroke-linejoin="round" stroke-linecap="butt" d="M 5.079 5.776 L 341.992 5.776 L 341.992 343.445 L 5.079 343.445 Z" fill-rule="nonzero" style="fill: rgb(255, 255, 255);"/>
  <path fill="#ffffff" d="M 282.734 40.554 L 282.734 40.554 C 282.734 32.178 289.7 25.389 298.293 25.389 L 298.293 25.389 C 302.42 25.389 306.378 26.986 309.295 29.83 C 312.213 32.674 313.853 36.532 313.853 40.554 L 313.853 40.554 C 313.853 48.93 306.887 55.719 298.293 55.719 L 298.293 55.719 C 289.7 55.719 282.734 48.93 282.734 40.554 Z" fill-rule="nonzero"/>
  <path stroke="#000000" stroke-width="2.0" stroke-linejoin="round" stroke-linecap="butt" d="M 282.734 40.554 L 282.734 40.554 C 282.734 32.178 289.7 25.389 298.293 25.389 L 298.293 25.389 C 302.42 25.389 306.378 26.986 309.295 29.83 C 312.213 32.674 313.853 36.532 313.853 40.554 L 313.853 40.554 C 313.853 48.93 306.887 55.719 298.293 55.719 L 298.293 55.719 C 289.7 55.719 282.734 48.93 282.734 40.554 Z" fill-rule="nonzero" style="fill: rgb(255, 255, 255);"/>
  <path fill="#000000" fill-opacity="0.0" d="M 38.37 95.737 L 145.583 95.737 L 145.583 195.926 L 38.37 195.926 Z" fill-rule="nonzero"/>
  <path stroke="#000000" stroke-width="1.0" stroke-linejoin="round" stroke-linecap="butt" d="M 38.37 95.737 L 145.583 95.737 L 145.583 195.926 L 38.37 195.926 Z" fill-rule="nonzero" style="fill: rgb(255, 255, 255);"/>
  <path fill="#000000" fill-opacity="0.0" d="M 152.48 95.737 L 259.693 95.737 L 259.693 195.926 L 152.48 195.926 Z" fill-rule="nonzero"/>
  <path stroke="#000000" stroke-width="1.0" stroke-linejoin="round" stroke-linecap="butt" d="M 152.48 95.737 L 259.693 95.737 L 259.693 195.926 L 152.48 195.926 Z" fill-rule="nonzero" style="fill: rgb(255, 255, 255);"/>
  <path fill="#000000" fill-opacity="0.0" d="M 38.37 206.521 L 145.583 206.521 L 145.583 306.71 L 38.37 306.71 Z" fill-rule="nonzero"/>
  <path stroke="#000000" stroke-width="1.0" stroke-linejoin="round" stroke-linecap="butt" d="M 38.37 206.521 L 145.583 206.521 L 145.583 306.71 L 38.37 306.71 Z" fill-rule="nonzero" style="fill: rgb(255, 255, 255);"/>
  <path fill="#000000" fill-opacity="0.0" d="M 152.48 206.521 L 259.693 206.521 L 259.693 306.71 L 152.48 306.71 Z" fill-rule="nonzero"/>
  <path stroke="#000000" stroke-width="1.0" stroke-linejoin="round" stroke-linecap="butt" d="M 152.48 206.521 L 259.693 206.521 L 259.693 306.71 L 152.48 306.71 Z" fill-rule="nonzero" style="fill: rgb(255, 255, 255);"/>
  <path stroke="#000000" stroke-width="2.0" stroke-linejoin="round" stroke-linecap="butt" d="M 46.273 42.05 L 46.273 42.05 C 46.273 28.157 57.827 16.897 72.079 16.897 L 72.079 16.897 C 78.924 16.897 85.489 19.546 90.327 24.263 C 95.167 28.98 97.887 35.379 97.887 42.05 L 97.887 42.05 C 97.887 55.942 86.333 67.202 72.079 67.202 L 72.079 67.202 C 57.827 67.202 46.273 55.942 46.273 42.05 Z" fill-rule="nonzero" style="fill: rgb(255, 255, 255);"/>
  <text x="76.43" y="170.735" style="fill: rgb(0, 0, 0); font-family: &quot;Source Serif Pro&quot;; font-size: 72px; stroke: rgb(0, 0, 0); stroke-linejoin: round; white-space: pre;">♩</text>
  <text x="186.021" y="172.086" style="fill: rgb(0, 0, 0); font-family: &quot;Source Serif Pro&quot;; font-size: 72px; stroke: rgb(0, 0, 0); stroke-linejoin: round; white-space: pre;">♪</text>
  <text x="61.715" y="281.181" style="fill: rgb(0, 0, 0); font-family: &quot;Source Serif Pro&quot;; font-size: 72px; stroke: rgb(0, 0, 0); stroke-linejoin: round; white-space: pre;">♫</text>
  <text x="172.757" y="283.483" style="fill: rgb(0, 0, 0); font-family: &quot;Source Serif Pro&quot;; font-size: 72px; stroke: rgb(0, 0, 0); stroke-linejoin: round; white-space: pre;">♬</text>
</svg>
